images/50506066.svg

<?xml version="1.0" encoding="UTF-8"?>
<svg xmlns="http://www.w3.org/2000/svg" xmlns:xlink="http://www.w3.org/1999/xlink" width="300pt" height="300pt" viewBox="0 0 300 300" version="1.1">
<defs>
<g>
<symbol overflow="visible" id="glyph0-0">
<path style="stroke:none;" d="M 0.453125 1.59375 L 0.453125 -6.34375 L 4.953125 -6.34375 L 4.953125 1.59375 Z M 0.953125 1.09375 L 4.453125 1.09375 L 4.453125 -5.84375 L 0.953125 -5.84375 Z M 0.953125 1.09375 "/>
</symbol>
<symbol overflow="visible" id="glyph0-1">
<path style="stroke:none;" d="M 5.796875 -6.0625 L 5.796875 -5.125 C 5.492188 -5.394531 5.171875 -5.597656 4.828125 -5.734375 C 4.492188 -5.878906 4.140625 -5.953125 3.765625 -5.953125 C 3.015625 -5.953125 2.4375 -5.722656 2.03125 -5.265625 C 1.632812 -4.804688 1.4375 -4.144531 1.4375 -3.28125 C 1.4375 -2.414062 1.632812 -1.753906 2.03125 -1.296875 C 2.4375 -0.835938 3.015625 -0.609375 3.765625 -0.609375 C 4.140625 -0.609375 4.492188 -0.675781 4.828125 -0.8125 C 5.171875 -0.945312 5.492188 -1.15625 5.796875 -1.4375 L 5.796875 -0.5 C 5.484375 -0.289062 5.15625 -0.132812 4.8125 -0.03125 C 4.46875 0.0703125 4.097656 0.125 3.703125 0.125 C 2.710938 0.125 1.929688 -0.175781 1.359375 -0.78125 C 0.785156 -1.394531 0.5 -2.226562 0.5 -3.28125 C 0.5 -4.332031 0.785156 -5.160156 1.359375 -5.765625 C 1.929688 -6.378906 2.710938 -6.6875 3.703125 -6.6875 C 4.097656 -6.6875 4.46875 -6.632812 4.8125 -6.53125 C 5.164062 -6.425781 5.492188 -6.269531 5.796875 -6.0625 Z M 5.796875 -6.0625 "/>
</symbol>
<symbol overflow="visible" id="glyph0-2">
<path style="stroke:none;" d="M 0.84375 -6.84375 L 1.65625 -6.84375 L 1.65625 0 L 0.84375 0 Z M 0.84375 -6.84375 "/>
</symbol>
<symbol overflow="visible" id="glyph0-3">
<path style="stroke:none;" d="M 0.890625 -6.5625 L 2.078125 -6.5625 L 4.984375 -1.078125 L 4.984375 -6.5625 L 5.84375 -6.5625 L 5.84375 0 L 4.65625 0 L 1.75 -5.484375 L 1.75 0 L 0.890625 0 Z M 0.890625 -6.5625 "/>
</symbol>
<symbol overflow="visible" id="glyph0-4">
<path style="stroke:none;" d="M 0.890625 -6.5625 L 1.765625 -6.5625 L 1.765625 -3.875 L 5 -3.875 L 5 -6.5625 L 5.890625 -6.5625 L 5.890625 0 L 5 0 L 5 -3.125 L 1.765625 -3.125 L 1.765625 0 L 0.890625 0 Z M 0.890625 -6.5625 "/>
</symbol>
</g>
</defs>
<g id="surface10833">
<rect x="0" y="0" width="300" height="300" style="fill:rgb(100%,100%,100%);fill-opacity:1;stroke:none;"/>
<path style="fill:none;stroke-width:1.2;stroke-linecap:butt;stroke-linejoin:miter;stroke:rgb(0%,80%,0%);stroke-opacity:1;stroke-miterlimit:10;" d="M 35.25 170.03125 L 44.980469 165.9375 "/>
<path style="fill:none;stroke-width:1.2;stroke-linecap:butt;stroke-linejoin:miter;stroke:rgb(0%,0%,0%);stroke-opacity:1;stroke-miterlimit:10;" d="M 44.980469 165.9375 L 54.710938 161.847656 "/>
<path style=" stroke:none;fill-rule:nonzero;fill:rgb(100%,100%,100%);fill-opacity:1;" d="M 25.25 164.53125 L 35.25 164.53125 L 35.25 175.53125 L 25.25 175.53125 Z M 25.25 164.53125 "/>
<g style="fill:rgb(0%,80%,0%);fill-opacity:1;">
  <use xlink:href="#glyph0-1" x="25.25" y="173.194336"/>
  <use xlink:href="#glyph0-2" x="31.763672" y="173.194336"/>
</g>
<path style="fill:none;stroke-width:1.2;stroke-linecap:butt;stroke-linejoin:miter;stroke:rgb(0%,0%,0%);stroke-opacity:1;stroke-miterlimit:10;" d="M 54.710938 161.847656 L 57.351562 140.902344 "/>
<path style="fill:none;stroke-width:1.2;stroke-linecap:butt;stroke-linejoin:miter;stroke:rgb(0%,0%,0%);stroke-opacity:1;stroke-miterlimit:10;" d="M 59.902344 160.375 L 62.015625 143.617188 "/>
<path style="fill:none;stroke-width:1.2;stroke-linecap:butt;stroke-linejoin:miter;stroke:rgb(0%,0%,0%);stroke-opacity:1;stroke-miterlimit:10;" d="M 71.527344 174.609375 L 54.710938 161.847656 "/>
<path style="fill:none;stroke-width:1.2;stroke-linecap:butt;stroke-linejoin:miter;stroke:rgb(0%,0%,0%);stroke-opacity:1;stroke-miterlimit:10;" d="M 57.351562 140.902344 L 76.8125 132.71875 "/>
<path style="fill:none;stroke-width:1.2;stroke-linecap:butt;stroke-linejoin:miter;stroke:rgb(0%,0%,0%);stroke-opacity:1;stroke-miterlimit:10;" d="M 76.8125 132.71875 L 93.632812 145.480469 "/>
<path style="fill:none;stroke-width:1.2;stroke-linecap:butt;stroke-linejoin:miter;stroke:rgb(0%,0%,0%);stroke-opacity:1;stroke-miterlimit:10;" d="M 75.492188 137.949219 L 88.945312 148.160156 "/>
<path style="fill:none;stroke-width:1.2;stroke-linecap:butt;stroke-linejoin:miter;stroke:rgb(0%,0%,0%);stroke-opacity:1;stroke-miterlimit:10;" d="M 93.632812 145.480469 L 90.988281 166.425781 "/>
<path style="fill:none;stroke-width:1.2;stroke-linecap:butt;stroke-linejoin:miter;stroke:rgb(0%,0%,0%);stroke-opacity:1;stroke-miterlimit:10;" d="M 93.632812 145.480469 L 113.09375 137.292969 "/>
<path style="fill:none;stroke-width:1.2;stroke-linecap:butt;stroke-linejoin:miter;stroke:rgb(0%,0%,0%);stroke-opacity:1;stroke-miterlimit:10;" d="M 90.988281 166.425781 L 71.527344 174.609375 "/>
<path style="fill:none;stroke-width:1.2;stroke-linecap:butt;stroke-linejoin:miter;stroke:rgb(0%,0%,0%);stroke-opacity:1;stroke-miterlimit:10;" d="M 87.117188 162.664062 L 71.546875 169.210938 "/>
<path style="fill:none;stroke-width:1.2;stroke-linecap:butt;stroke-linejoin:miter;stroke:rgb(0%,0%,0%);stroke-opacity:1;stroke-miterlimit:10;" d="M 113.09375 137.292969 L 121.5 143.675781 "/>
<path style="fill:none;stroke-width:1.2;stroke-linecap:butt;stroke-linejoin:miter;stroke:rgb(0%,0%,100%);stroke-opacity:1;stroke-miterlimit:10;" d="M 121.5 143.675781 L 129.910156 150.054688 "/>
<path style="fill:none;stroke-width:1.2;stroke-linecap:butt;stroke-linejoin:miter;stroke:rgb(0%,0%,100%);stroke-opacity:1;stroke-miterlimit:10;" d="M 129.910156 150.054688 L 139.640625 145.964844 "/>
<path style="fill:none;stroke-width:1.2;stroke-linecap:butt;stroke-linejoin:miter;stroke:rgb(0%,0%,0%);stroke-opacity:1;stroke-miterlimit:10;" d="M 139.640625 145.964844 L 149.371094 141.871094 "/>
<path style=" stroke:none;fill-rule:nonzero;fill:rgb(100%,100%,100%);fill-opacity:1;" d="M 122.910156 144.554688 L 136.910156 144.554688 L 136.910156 155.554688 L 122.910156 155.554688 Z M 122.910156 144.554688 "/>
<g style="fill:rgb(0%,0%,100%);fill-opacity:1;">
  <use xlink:href="#glyph0-3" x="122.910156" y="153.217773"/>
  <use xlink:href="#glyph0-4" x="129.887695" y="153.217773"/>
</g>
<path style="fill:none;stroke-width:1.2;stroke-linecap:butt;stroke-linejoin:miter;stroke:rgb(0%,0%,0%);stroke-opacity:1;stroke-miterlimit:10;" d="M 149.371094 141.871094 L 157.777344 148.253906 "/>
<path style="fill:none;stroke-width:1.2;stroke-linecap:butt;stroke-linejoin:miter;stroke:rgb(0%,0%,100%);stroke-opacity:1;stroke-miterlimit:10;" d="M 157.777344 148.253906 L 166.1875 154.632812 "/>
<path style="fill:none;stroke-width:1.2;stroke-linecap:butt;stroke-linejoin:miter;stroke:rgb(0%,0%,0%);stroke-opacity:1;stroke-miterlimit:10;" d="M 154.054688 139.191406 L 160.78125 144.296875 "/>
<path style="fill:none;stroke-width:1.2;stroke-linecap:butt;stroke-linejoin:miter;stroke:rgb(0%,0%,100%);stroke-opacity:1;stroke-miterlimit:10;" d="M 160.78125 144.296875 L 167.507812 149.398438 "/>
<path style="fill:none;stroke-width:1.2;stroke-linecap:butt;stroke-linejoin:miter;stroke:rgb(0%,0%,100%);stroke-opacity:1;stroke-miterlimit:10;" d="M 152.011719 120.925781 L 150.691406 131.398438 "/>
<path style="fill:none;stroke-width:1.2;stroke-linecap:butt;stroke-linejoin:miter;stroke:rgb(0%,0%,0%);stroke-opacity:1;stroke-miterlimit:10;" d="M 150.691406 131.398438 L 149.371094 141.871094 "/>
<path style="fill:none;stroke-width:1.2;stroke-linecap:butt;stroke-linejoin:miter;stroke:rgb(0%,0%,100%);stroke-opacity:1;stroke-miterlimit:10;" d="M 166.1875 154.632812 L 175.917969 150.542969 "/>
<path style="fill:none;stroke-width:1.2;stroke-linecap:butt;stroke-linejoin:miter;stroke:rgb(0%,0%,0%);stroke-opacity:1;stroke-miterlimit:10;" d="M 175.917969 150.542969 L 185.648438 146.449219 "/>
<path style=" stroke:none;fill-rule:nonzero;fill:rgb(100%,100%,100%);fill-opacity:1;" d="M 163.1875 149.132812 L 170.1875 149.132812 L 170.1875 160.132812 L 163.1875 160.132812 Z M 163.1875 149.132812 "/>
<g style="fill:rgb(0%,0%,100%);fill-opacity:1;">
  <use xlink:href="#glyph0-3" x="163.1875" y="157.795898"/>
</g>
<path style="fill:none;stroke-width:1.2;stroke-linecap:butt;stroke-linejoin:miter;stroke:rgb(0%,0%,0%);stroke-opacity:1;stroke-miterlimit:10;" d="M 185.648438 146.449219 L 188.292969 125.503906 "/>
<path style="fill:none;stroke-width:1.2;stroke-linecap:butt;stroke-linejoin:miter;stroke:rgb(0%,0%,0%);stroke-opacity:1;stroke-miterlimit:10;" d="M 180.984375 143.734375 L 183.097656 126.976562 "/>
<path style="fill:none;stroke-width:1.2;stroke-linecap:butt;stroke-linejoin:miter;stroke:rgb(0%,0%,0%);stroke-opacity:1;stroke-miterlimit:10;" d="M 185.648438 146.449219 L 202.464844 159.210938 "/>
<path style="fill:none;stroke-width:1.2;stroke-linecap:butt;stroke-linejoin:miter;stroke:rgb(0%,0%,0%);stroke-opacity:1;stroke-miterlimit:10;" d="M 188.292969 125.503906 L 171.472656 112.742188 "/>
<path style="fill:none;stroke-width:1.2;stroke-linecap:butt;stroke-linejoin:miter;stroke:rgb(0%,0%,0%);stroke-opacity:1;stroke-miterlimit:10;" d="M 171.472656 112.742188 L 161.742188 116.835938 "/>
<path style="fill:none;stroke-width:1.2;stroke-linecap:butt;stroke-linejoin:miter;stroke:rgb(0%,0%,100%);stroke-opacity:1;stroke-miterlimit:10;" d="M 161.742188 116.835938 L 152.011719 120.925781 "/>
<path style="fill:none;stroke-width:1.2;stroke-linecap:butt;stroke-linejoin:miter;stroke:rgb(0%,0%,0%);stroke-opacity:1;stroke-miterlimit:10;" d="M 171.453125 118.140625 L 163.667969 121.414062 "/>
<path style="fill:none;stroke-width:1.2;stroke-linecap:butt;stroke-linejoin:miter;stroke:rgb(0%,0%,100%);stroke-opacity:1;stroke-miterlimit:10;" d="M 163.667969 121.414062 L 155.886719 124.6875 "/>
<path style=" stroke:none;fill-rule:nonzero;fill:rgb(100%,100%,100%);fill-opacity:1;" d="M 149.011719 115.425781 L 156.011719 115.425781 L 156.011719 126.425781 L 149.011719 126.425781 Z M 149.011719 115.425781 "/>
<g style="fill:rgb(0%,0%,100%);fill-opacity:1;">
  <use xlink:href="#glyph0-3" x="149.011719" y="124.088867"/>
</g>
<path style="fill:none;stroke-width:1.2;stroke-linecap:butt;stroke-linejoin:miter;stroke:rgb(0%,0%,0%);stroke-opacity:1;stroke-miterlimit:10;" d="M 202.464844 159.210938 L 222.675781 153.105469 "/>
<path style="fill:none;stroke-width:1.2;stroke-linecap:butt;stroke-linejoin:miter;stroke:rgb(0%,0%,0%);stroke-opacity:1;stroke-miterlimit:10;" d="M 205.925781 163.355469 L 222.089844 158.472656 "/>
<path style="fill:none;stroke-width:1.2;stroke-linecap:butt;stroke-linejoin:miter;stroke:rgb(0%,0%,0%);stroke-opacity:1;stroke-miterlimit:10;" d="M 202.027344 180.316406 L 202.464844 159.210938 "/>
<path style="fill:none;stroke-width:1.2;stroke-linecap:butt;stroke-linejoin:miter;stroke:rgb(0%,0%,0%);stroke-opacity:1;stroke-miterlimit:10;" d="M 222.675781 153.105469 L 228.703125 161.773438 "/>
<path style="fill:none;stroke-width:1.2;stroke-linecap:butt;stroke-linejoin:miter;stroke:rgb(0%,0%,100%);stroke-opacity:1;stroke-miterlimit:10;" d="M 228.703125 161.773438 L 234.726562 170.4375 "/>
<path style="fill:none;stroke-width:1.2;stroke-linecap:butt;stroke-linejoin:miter;stroke:rgb(0%,0%,0%);stroke-opacity:1;stroke-miterlimit:10;" d="M 231.660156 134.003906 L 222.675781 153.105469 "/>
<path style="fill:none;stroke-width:1.2;stroke-linecap:butt;stroke-linejoin:miter;stroke:rgb(0%,0%,100%);stroke-opacity:1;stroke-miterlimit:10;" d="M 234.726562 170.4375 L 221.964844 187.257812 "/>
<path style="fill:none;stroke-width:1.2;stroke-linecap:butt;stroke-linejoin:miter;stroke:rgb(0%,0%,100%);stroke-opacity:1;stroke-miterlimit:10;" d="M 234.726562 170.4375 L 255.765625 168.667969 "/>
<path style=" stroke:none;fill-rule:nonzero;fill:rgb(100%,100%,100%);fill-opacity:1;" d="M 231.726562 164.9375 L 238.726562 164.9375 L 238.726562 175.9375 L 231.726562 175.9375 Z M 231.726562 164.9375 "/>
<g style="fill:rgb(0%,0%,100%);fill-opacity:1;">
  <use xlink:href="#glyph0-3" x="231.726562" y="173.600586"/>
</g>
<path style="fill:none;stroke-width:1.2;stroke-linecap:butt;stroke-linejoin:miter;stroke:rgb(0%,0%,100%);stroke-opacity:1;stroke-miterlimit:10;" d="M 221.964844 187.257812 L 211.996094 183.789062 "/>
<path style="fill:none;stroke-width:1.2;stroke-linecap:butt;stroke-linejoin:miter;stroke:rgb(0%,0%,0%);stroke-opacity:1;stroke-miterlimit:10;" d="M 211.996094 183.789062 L 202.027344 180.316406 "/>
<path style="fill:none;stroke-width:1.2;stroke-linecap:butt;stroke-linejoin:miter;stroke:rgb(0%,0%,100%);stroke-opacity:1;stroke-miterlimit:10;" d="M 221.605469 181.871094 L 213.628906 179.097656 "/>
<path style="fill:none;stroke-width:1.2;stroke-linecap:butt;stroke-linejoin:miter;stroke:rgb(0%,0%,0%);stroke-opacity:1;stroke-miterlimit:10;" d="M 213.628906 179.097656 L 205.65625 176.320312 "/>
<path style=" stroke:none;fill-rule:nonzero;fill:rgb(100%,100%,100%);fill-opacity:1;" d="M 218.964844 181.757812 L 225.964844 181.757812 L 225.964844 192.757812 L 218.964844 192.757812 Z M 218.964844 181.757812 "/>
<g style="fill:rgb(0%,0%,100%);fill-opacity:1;">
  <use xlink:href="#glyph0-3" x="218.964844" y="190.420898"/>
</g>
<path style="fill:none;stroke-width:1.2;stroke-linecap:butt;stroke-linejoin:miter;stroke:rgb(0%,0%,100%);stroke-opacity:1;stroke-miterlimit:10;" d="M 255.765625 168.667969 L 260.257812 159.117188 "/>
<path style="fill:none;stroke-width:1.2;stroke-linecap:butt;stroke-linejoin:miter;stroke:rgb(0%,0%,0%);stroke-opacity:1;stroke-miterlimit:10;" d="M 260.257812 159.117188 L 264.75 149.566406 "/>
<path style="fill:none;stroke-width:1.2;stroke-linecap:butt;stroke-linejoin:miter;stroke:rgb(0%,0%,100%);stroke-opacity:1;stroke-miterlimit:10;" d="M 252.167969 164.644531 L 255.761719 157.003906 "/>
<path style="fill:none;stroke-width:1.2;stroke-linecap:butt;stroke-linejoin:miter;stroke:rgb(0%,0%,0%);stroke-opacity:1;stroke-miterlimit:10;" d="M 255.761719 157.003906 L 259.355469 149.363281 "/>
<path style=" stroke:none;fill-rule:nonzero;fill:rgb(100%,100%,100%);fill-opacity:1;" d="M 252.765625 163.167969 L 259.765625 163.167969 L 259.765625 174.167969 L 252.765625 174.167969 Z M 252.765625 163.167969 "/>
<g style="fill:rgb(0%,0%,100%);fill-opacity:1;">
  <use xlink:href="#glyph0-3" x="252.765625" y="171.831055"/>
</g>
<path style="fill:none;stroke-width:1.2;stroke-linecap:butt;stroke-linejoin:miter;stroke:rgb(0%,0%,0%);stroke-opacity:1;stroke-miterlimit:10;" d="M 264.75 149.566406 L 252.699219 132.230469 "/>
<path style="fill:none;stroke-width:1.2;stroke-linecap:butt;stroke-linejoin:miter;stroke:rgb(0%,0%,0%);stroke-opacity:1;stroke-miterlimit:10;" d="M 252.699219 132.230469 L 231.660156 134.003906 "/>
<path style="fill:none;stroke-width:1.2;stroke-linecap:butt;stroke-linejoin:miter;stroke:rgb(0%,0%,0%);stroke-opacity:1;stroke-miterlimit:10;" d="M 251.011719 137.359375 L 234.183594 138.773438 "/>
</g>
</svg>

<svg xmlns="http://www.w3.org/2000/svg" xmlns:xlink="http://www.w3.org/1999/xlink" width="300pt" height="300pt" viewBox="0 0 300 300"><defs><symbol overflow="visible"><path d="M.453 1.594v-7.938h4.5v7.938zm.5-.5h3.5v-6.938h-3.5zm0 0"/></symbol><symbol overflow="visible" id="a"><path d="M5.797-6.063v.938c-.305-.27-.625-.473-.97-.61-.335-.144-.686-.218-1.06-.218-.75 0-1.33.23-1.736.687-.397.46-.592 1.12-.592 1.985 0 .866.195 1.526.593 1.983.408.46.986.688 1.736.688.375 0 .726-.066 1.062-.203.344-.132.664-.343.97-.625V-.5c-.314.21-.642.367-.986.47-.343.1-.714.155-1.11.155-.99 0-1.772-.3-2.343-.906C.784-1.396.5-2.228.5-3.28c0-1.052.285-1.88.86-2.486.57-.613 1.35-.92 2.343-.92.395-.002.766.053 1.11.155.35.104.68.26.984.468zm0 0"/></symbol><symbol overflow="visible" id="b"><path d="M.844-6.844h.812V0H.844zm0 0"/></symbol><symbol overflow="visible" id="c"><path d="M.89-6.563H2.08l2.906 5.485v-5.484h.86V0H4.656L1.75-5.484V0H.89zm0 0"/></symbol><symbol overflow="visible" id="d"><path d="M.89-6.563h.876v2.688H5v-2.688h.89V0H5v-3.125H1.766V0H.89zm0 0"/></symbol></defs><g><path fill="#fff" d="M0 0h300v300H0z"/><path d="M35.25 170.03l9.73-4.093" stroke-width="1.2" stroke="#0c0" stroke-miterlimit="10" fill="none"/><path d="M44.98 165.938l9.73-4.09" stroke-width="1.2" stroke="#000" stroke-miterlimit="10" fill="none"/><path d="M25.25 164.53h10v11h-10zm0 0" fill="#fff"/><g fill="#0c0"><use xlink:href="#a" x="25.25" y="173.194"/><use xlink:href="#b" x="31.764" y="173.194"/></g><path d="M54.71 161.848l2.642-20.946M59.902 160.375l2.114-16.758M71.527 174.61L54.71 161.847M57.352 140.902l19.46-8.183M76.813 132.72l16.82 12.76M75.492 137.95l13.453 10.21M93.633 145.48l-2.645 20.946M93.633 145.48l19.46-8.187M90.988 166.426l-19.46 8.183M87.117 162.664l-15.57 6.547M113.094 137.293l8.406 6.383" stroke-width="1.2" stroke="#000" stroke-miterlimit="10" fill="none"/><path d="M121.5 143.676l8.41 6.38M129.91 150.055l9.73-4.09" stroke-width="1.2" stroke="#00f" stroke-miterlimit="10" fill="none"/><path d="M139.64 145.965l9.73-4.094" stroke-width="1.2" stroke="#000" stroke-miterlimit="10" fill="none"/><path d="M122.91 144.555h14v11h-14zm0 0" fill="#fff"/><g fill="#00f"><use xlink:href="#c" x="122.91" y="153.218"/><use xlink:href="#d" x="129.888" y="153.218"/></g><path d="M149.37 141.87l8.407 6.384" stroke-width="1.2" stroke="#000" stroke-miterlimit="10" fill="none"/><path d="M157.777 148.254l8.41 6.38" stroke-width="1.2" stroke="#00f" stroke-miterlimit="10" fill="none"/><path d="M154.055 139.19l6.726 5.107" stroke-width="1.2" stroke="#000" stroke-miterlimit="10" fill="none"/><path d="M160.78 144.297l6.728 5.1M152.012 120.926l-1.32 10.472" stroke-width="1.2" stroke="#00f" stroke-miterlimit="10" fill="none"/><path d="M150.69 131.398l-1.32 10.473" stroke-width="1.2" stroke="#000" stroke-miterlimit="10" fill="none"/><path d="M166.188 154.633l9.73-4.09" stroke-width="1.2" stroke="#00f" stroke-miterlimit="10" fill="none"/><path d="M175.918 150.543l9.73-4.094" stroke-width="1.2" stroke="#000" stroke-miterlimit="10" fill="none"/><path d="M163.188 149.133h7v11h-7zm0 0" fill="#fff"/><use xlink:href="#c" x="163.188" y="157.796" fill="#00f"/><path d="M185.648 146.45l2.645-20.946M180.984 143.734l2.114-16.757M185.648 146.45l16.817 12.76M188.293 125.504l-16.82-12.762M171.473 112.742l-9.73 4.094" stroke-width="1.2" stroke="#000" stroke-miterlimit="10" fill="none"/><path d="M161.742 116.836l-9.73 4.09" stroke-width="1.2" stroke="#00f" stroke-miterlimit="10" fill="none"/><path d="M171.453 118.14l-7.785 3.274" stroke-width="1.2" stroke="#000" stroke-miterlimit="10" fill="none"/><path d="M163.668 121.414l-7.78 3.273" stroke-width="1.2" stroke="#00f" stroke-miterlimit="10" fill="none"/><path d="M149.012 115.426h7v11h-7zm0 0" fill="#fff"/><use xlink:href="#c" x="149.012" y="124.089" fill="#00f"/><path d="M202.465 159.21l20.21-6.105M205.926 163.355l16.164-4.882M202.027 180.316l.438-21.105M222.676 153.105l6.027 8.668" stroke-width="1.2" stroke="#000" stroke-miterlimit="10" fill="none"/><path d="M228.703 161.773l6.024 8.665" stroke-width="1.2" stroke="#00f" stroke-miterlimit="10" fill="none"/><path d="M231.66 134.004l-8.984 19.1" stroke-width="1.2" stroke="#000" stroke-miterlimit="10" fill="none"/><path d="M234.727 170.438l-12.762 16.82M234.727 170.438l21.04-1.77" stroke-width="1.2" stroke="#00f" stroke-miterlimit="10" fill="none"/><path d="M231.727 164.938h7v11h-7zm0 0" fill="#fff"/><use xlink:href="#c" x="231.727" y="173.601" fill="#00f"/><path d="M221.965 187.258l-9.97-3.47" stroke-width="1.2" stroke="#00f" stroke-miterlimit="10" fill="none"/><path d="M211.996 183.79l-9.97-3.474" stroke-width="1.2" stroke="#000" stroke-miterlimit="10" fill="none"/><path d="M221.605 181.87l-7.976-2.772" stroke-width="1.2" stroke="#00f" stroke-miterlimit="10" fill="none"/><path d="M213.63 179.098l-7.974-2.778" stroke-width="1.2" stroke="#000" stroke-miterlimit="10" fill="none"/><path d="M218.965 181.758h7v11h-7zm0 0" fill="#fff"/><use xlink:href="#c" x="218.965" y="190.421" fill="#00f"/><path d="M255.766 168.668l4.492-9.55" stroke-width="1.2" stroke="#00f" stroke-miterlimit="10" fill="none"/><path d="M260.258 159.117l4.492-9.55" stroke-width="1.2" stroke="#000" stroke-miterlimit="10" fill="none"/><path d="M252.168 164.645l3.594-7.64" stroke-width="1.2" stroke="#00f" stroke-miterlimit="10" fill="none"/><path d="M255.762 157.004l3.593-7.64" stroke-width="1.2" stroke="#000" stroke-miterlimit="10" fill="none"/><path d="M252.766 163.168h7v11h-7zm0 0" fill="#fff"/><use xlink:href="#c" x="252.766" y="171.831" fill="#00f"/><path d="M264.75 149.566L252.7 132.23M252.7 132.23l-21.04 1.774M251.012 137.36l-16.828 1.413" stroke-width="1.2" stroke="#000" stroke-miterlimit="10" fill="none"/></g></svg>
